X: 412
T: Bluegrass Twist
C:Bill Monroe 1960
B: jims roots
M:C
L:1/8
Q: 1/4=100
K:G
V:1 
x D=F || ^"D"Fd- dd d2 de | g_bg=f dc (3BcB | "G"G2 GD =FG (3FED | G,z2 |
G,2JB,D || "G"GAGG GGGGG | !slide!BG!slide!BG !slide! BGGG | gggg g_b g2 | (3d^c=c y(3_B=BG y=FD y(3_DC_B, |
"C"CDEG _B2 G2 | Gg=fd cc (3BcB | "G"G2 [G2B,] (3=F^FG GD | G,2 [G2G,2] G2 GD |
"D"JF[dF][dF][dF] [dF][dF][dF][d/F/][d/F/] | dggg gd_B=B | "G"G2 GD =FG (3FED | G,2 [g2d]G,2 |]
"C"_BGGG GBGB | _Bdcc BG (3BcB | "G"G2 GD (3D^C=C (3FGG | G, [G2G,] G2 GD |
"D"JF[Fd]dd ddde | g_b [bd][bd] dc (3BcB | "G"G2GD =FG (3FGG | G,2z2  z4|]
V:dg 
g ||"D"[gd][gd][gd][gd] [gd][gd][gd][gd] | [_bd][bd][bd][bd] [bd][bd][bd][bd] | [_bd][bd][bd][bd] [bd][gd][gd][gd] | [gd][gd]gg ggdc ||
% abcbook-tune_id 6298c245810285bde0547ce0


% abcbook-boost 0
% abcbook-tablature 
% abcbook-transpose 
% abcbook-lastupdated 1654178373421
% abcbook-soundfonts 
% abcbook-repeats 1


